symbols/web/departure_board/materialsymbolssharp/departure_board_wght300_48px.svg

<svg xmlns="http://www.w3.org/2000/svg" height="48" width="48"><path d="m39.4 16.65 1.15-1.1-3.7-3.75V5.9h-1.6v6.35ZM12.5 33.9q1 0 1.7-.7t.7-1.75q0-1-.7-1.7t-1.7-.7q-1 0-1.725.725-.725.725-.725 1.725t.725 1.7q.725.7 1.725.7Zm15 0q1 0 1.725-.7.725-.7.725-1.75 0-1-.725-1.7t-1.725-.7q-1 0-1.7.725t-.7 1.725q0 1 .7 1.7t1.7.7ZM8.15 43v-5.05q-1.35-.6-2.25-2.1-.9-1.5-.9-3.25V13.35q0-1.85 1.125-3.175 1.125-1.325 3.5-2.1Q12 7.3 15.75 7.1q3.75-.2 8.95.05-.2.55-.375 1.1T24 9.4q-8.1-.4-12.15.425-4.05.825-4.7 2.575H23.7q0 .55.1 1.125t.25 1.125H7.25v9.4H32.9q.35 0 1.05.1.7.1 1.05.1v8.35q0 1.75-.9 3.25t-2.25 2.1V43H28.9v-4.1H11.1V43Zm20.5-16.65H7.25h25.5-4.1Zm7.35-5.7q-3.6 0-6.125-2.525T27.35 12q0-3.6 2.525-6.1Q32.4 3.4 36 3.4t6.1 2.5q2.5 2.5 2.5 6.1 0 3.6-2.5 6.125T36 20.65Zm-24.65 16h17.3q1.75 0 2.925-1.3 1.175-1.3 1.175-3v-6H7.25v6q0 1.7 1.175 3t2.925 1.3ZM23.7 12.4H7.15 23.7Z"/></svg>

<svg xmlns="http://www.w3.org/2000/svg" height="48" width="48"><path d="M39.4 16.65 40.55 15.55 36.85 11.8V5.9H35.25V12.25ZM12.5 33.9Q13.5 33.9 14.2 33.2Q14.9 32.5 14.9 31.45Q14.9 30.45 14.2 29.75Q13.5 29.05 12.5 29.05Q11.5 29.05 10.775 29.775Q10.05 30.5 10.05 31.5Q10.05 32.5 10.775 33.2Q11.5 33.9 12.5 33.9ZM27.5 33.9Q28.5 33.9 29.225 33.2Q29.95 32.5 29.95 31.45Q29.95 30.45 29.225 29.75Q28.5 29.05 27.5 29.05Q26.5 29.05 25.8 29.775Q25.1 30.5 25.1 31.5Q25.1 32.5 25.8 33.2Q26.5 33.9 27.5 33.9ZM8.15 43V37.95Q6.8 37.35 5.9 35.85Q5 34.35 5 32.6V13.35Q5 11.5 6.125 10.175Q7.25 8.85 9.625 8.075Q12 7.3 15.75 7.1Q19.5 6.9 24.7 7.15Q24.5 7.7 24.325 8.25Q24.15 8.8 24 9.4Q15.9 9 11.85 9.825Q7.8 10.65 7.15 12.4H23.7Q23.7 12.95 23.8 13.525Q23.9 14.1 24.05 14.65H7.25V24.05H32.9Q33.25 24.05 33.95 24.15Q34.65 24.25 35 24.25V32.6Q35 34.35 34.1 35.85Q33.2 37.35 31.85 37.95V43H28.9V38.9H11.1V43ZM28.65 26.35H11.35Q9.6 26.35 8.425 26.35Q7.25 26.35 7.25 26.35H32.75Q32.75 26.35 31.575 26.35Q30.4 26.35 28.65 26.35ZM36 20.65Q32.4 20.65 29.875 18.125Q27.35 15.6 27.35 12Q27.35 8.4 29.875 5.9Q32.4 3.4 36 3.4Q39.6 3.4 42.1 5.9Q44.6 8.4 44.6 12Q44.6 15.6 42.1 18.125Q39.6 20.65 36 20.65ZM11.35 36.65H28.65Q30.4 36.65 31.575 35.35Q32.75 34.05 32.75 32.35V26.35H7.25V32.35Q7.25 34.05 8.425 35.35Q9.6 36.65 11.35 36.65ZM23.7 12.4Q23.7 12.4 23.7 12.4Q23.7 12.4 23.7 12.4H7.15Q7.8 12.4 11.825 12.4Q15.85 12.4 23.7 12.4Z"/></svg>
